static/img/pages/index/rawPower.svg

<svg width="176" height="113" viewBox="0 0 176 113" fill="none" xmlns="http://www.w3.org/2000/svg">
<path d="M0 8C0 3.58173 3.58172 0 8 0H168C172.418 0 176 3.58172 176 8V105C176 109.418 172.418 113 168 113H8C3.58172 113 0 109.418 0 105V8Z" fill="white"/>
<path d="M138.134 78.7074H134.24C134.019 55.7255 117.473 36.666 95.6234 32.6055C92.8059 32.0807 89.8779 31.8044 86.8947 31.8044C86.8394 31.8044 86.7566 31.8044 86.7013 31.8044C84.4363 31.8044 82.1989 31.9702 80.0167 32.3016C76.1772 32.8541 72.5034 33.8761 69.0229 35.2849C64.6862 37.0527 60.7086 39.4282 57.1176 42.3286C53.361 45.3947 50.0739 49.0409 47.3945 53.129C45.6819 55.7255 44.2179 58.4878 43.0578 61.3881C42.2567 63.377 41.5938 65.421 41.069 67.5203C40.1574 71.1112 39.6602 74.8403 39.6326 78.7074H35.7102C35.7378 73.7078 36.5113 68.9014 37.8648 64.3437C38.4725 62.2997 39.2183 60.3385 40.0469 58.4049C41.3176 55.5598 42.8092 52.8528 44.5494 50.3115C47.3117 46.2786 50.6264 42.6601 54.383 39.5664C57.9187 36.666 61.8411 34.2076 66.0673 32.3293C69.4096 30.8377 72.9729 29.6775 76.6467 28.9317C78.6908 28.5174 80.8177 28.2135 82.9447 28.0478C84.2429 27.9373 85.5688 27.9097 86.8947 27.9097C88.3034 27.9097 89.6846 27.9649 91.0657 28.0754C117.279 30.1747 137.913 51.9965 138.134 78.7074Z" fill="#DBDBDB"/>
<path d="M63.2222 78.7077C63.4432 65.808 73.9674 55.3943 86.9223 55.3943C99.8773 55.3943 110.401 65.7804 110.622 78.7077H134.24C133.991 52.7426 112.915 31.7771 86.9223 31.7771C60.9295 31.7771 39.826 52.7426 39.605 78.7077H63.2222Z" fill="white"/>
<path d="M39.605 78.7074H63.2222C63.3051 73.8182 64.8519 69.3158 67.4485 65.5867L48.3613 51.6926C42.9197 59.3164 39.6878 68.6252 39.605 78.7074Z" fill="#EDBFCD"/>
<path d="M106.258 65.4212C108.937 69.1778 110.512 73.7632 110.595 78.7076H134.212C134.129 68.5701 130.87 59.2061 125.373 51.5547L106.258 65.4212Z" fill="#D14671"/>
<path d="M94.4908 56.6375C99.0486 58.1567 102.971 61.0295 105.816 64.7861L124.931 50.9196C119.185 43.1853 111.147 37.2741 101.811 34.208L94.4908 56.6375Z" fill="#EC779B"/>
<path d="M67.918 64.9239C70.7078 61.1949 74.575 58.2945 79.0774 56.72L71.7851 34.2629C62.5039 37.3843 54.521 43.3231 48.8308 51.0298L67.918 64.9239Z" fill="#E7A5B9"/>
<path d="M79.8233 56.4713C82.0608 55.7808 84.4363 55.3941 86.9223 55.3941C89.2979 55.3941 91.5629 55.7531 93.7175 56.3885L101.01 33.9314C96.5626 32.5503 91.8115 31.8044 86.9223 31.8044C81.895 31.8044 77.0611 32.5779 72.531 34.0419L79.8233 56.4713Z" fill="#EB92AE"/>
<path d="M86.9223 33.6002C111.921 33.6002 132.196 53.7646 132.417 78.7077H134.24C133.991 52.7426 112.915 31.7771 86.9223 31.7771C60.9295 31.7771 39.826 52.7426 39.605 78.7077H41.4281C41.649 53.7646 61.924 33.6002 86.9223 33.6002Z" fill="#E5E5E5"/>
<path d="M66.6475 78.7075C66.8684 67.7414 75.9562 58.847 86.9224 58.847C97.8885 58.847 106.976 67.769 107.197 78.7075H110.705V78.6799C110.595 72.4096 108.081 66.5536 103.606 62.134C99.1315 57.7421 93.2203 55.3113 86.9224 55.3113C80.6521 55.3113 74.7132 57.7421 70.2384 62.134C65.7635 66.526 63.2499 72.4096 63.1394 78.6799V78.7075H66.6475Z" fill="#E6E7E8"/>
<path d="M111.561 78.7076H110.705V78.68C110.595 72.4097 108.081 66.5537 103.606 62.1341C99.1314 57.7422 93.2202 55.3114 86.9222 55.3114C80.6519 55.3114 74.7131 57.7422 70.2382 62.1341C65.7634 66.5261 63.2497 72.4097 63.1393 78.68V78.7076H62.283C62.5039 65.2831 73.4424 54.4551 86.9222 54.4551C100.402 54.4551 111.341 65.2831 111.561 78.7076Z" fill="#D1D3D4"/>
<path d="M108.081 49.9801C107.612 49.6486 106.976 49.7591 106.645 50.2011L87.3643 75.3652C86.066 75.227 84.7401 75.7519 83.9115 76.8844C83.0828 78.0445 82.9999 79.5085 83.5524 80.6963L80.5139 83.569C80.1824 83.9005 80.2101 84.453 80.5968 84.7292L82.0608 85.7788L83.5248 86.8285C83.9115 87.1047 84.4363 86.9666 84.6573 86.5523L86.4527 82.768C87.7786 82.9337 89.1321 82.4089 89.9608 81.2487C90.7895 80.1162 90.8723 78.6799 90.3475 77.4921L108.33 51.3612C108.634 50.9469 108.551 50.3116 108.081 49.9801Z" fill="#53555E"/>
<path d="M86.4252 82.7957L84.6297 86.58C84.4364 86.9944 83.8839 87.1325 83.4972 86.8563L82.0332 85.8066L108.081 49.9802C108.551 50.3117 108.634 50.9746 108.302 51.4166L90.32 77.5475C90.8724 78.7352 90.7619 80.1716 89.9332 81.3041C89.1046 82.4367 87.7511 82.9891 86.4252 82.7957Z" fill="white" fill-opacity="0.1"/>
</svg>

<svg width="176" height="113" viewBox="0 0 176 113" fill="none" xmlns="http://www.w3.org/2000/svg"><path d="M0 8a8 8 0 018-8h160a8 8 0 018 8v97a8 8 0 01-8 8H8a8 8 0 01-8-8V8z" fill="#fff"/><path d="M138.134 78.707h-3.894c-.221-22.981-16.767-42.041-38.617-46.101a47.722 47.722 0 00-8.728-.802H86.7c-2.265 0-4.502.166-6.684.498a47.163 47.163 0 00-10.994 2.983 47.344 47.344 0 00-11.905 7.044 47.703 47.703 0 00-9.724 10.8 46.131 46.131 0 00-4.336 8.26 46.717 46.717 0 00-1.989 6.131 46.663 46.663 0 00-1.436 11.187H35.71c.028-5 .801-9.806 2.155-14.363.607-2.044 1.353-4.005 2.182-5.94a51.346 51.346 0 014.502-8.093 51.968 51.968 0 019.834-10.745c3.536-2.9 7.458-5.358 11.684-7.237a50.87 50.87 0 0110.58-3.397 52.362 52.362 0 016.298-.884c1.298-.11 2.624-.138 3.95-.138 1.408 0 2.79.055 4.17.165 26.214 2.1 46.848 23.921 47.069 50.632z" fill="#DBDBDB"/><path d="M63.222 78.708c.221-12.9 10.745-23.314 23.7-23.314s23.479 10.386 23.7 23.314h23.618c-.249-25.965-21.325-46.93-47.318-46.93-25.992 0-47.096 20.965-47.317 46.93h23.617z" fill="#fff"/><path d="M39.605 78.707h23.617a23.554 23.554 0 014.226-13.12L48.361 51.693c-5.441 7.623-8.673 16.932-8.756 27.014z" fill="#EDBFCD"/><path d="M106.258 65.421c2.679 3.757 4.254 8.342 4.337 13.287h23.617c-.083-10.138-3.342-19.502-8.839-27.153L106.258 65.42z" fill="#D14671"/><path d="M94.49 56.638a23.566 23.566 0 0111.326 8.148l19.115-13.866c-5.746-7.735-13.784-13.646-23.12-16.712l-7.32 22.43z" fill="#EC779B"/><path d="M67.918 64.924a23.765 23.765 0 0111.16-8.204l-7.293-22.457c-9.281 3.121-17.264 9.06-22.954 16.767l19.087 13.894z" fill="#E7A5B9"/><path d="M79.823 56.471a24 24 0 017.1-1.077c2.375 0 4.64.36 6.794.995l7.293-22.458a47.526 47.526 0 00-14.088-2.127c-5.027 0-9.86.774-14.391 2.238l7.292 22.43z" fill="#EB92AE"/><path d="M86.922 33.6c24.999 0 45.274 20.165 45.495 45.108h1.823c-.249-25.965-21.325-46.93-47.318-46.93-25.992 0-47.096 20.965-47.317 46.93h1.823C41.65 53.765 61.924 33.6 86.922 33.6z" fill="#E5E5E5"/><path d="M66.647 78.707c.221-10.966 9.31-19.86 20.275-19.86 10.966 0 20.054 8.922 20.275 19.86h3.508v-.027c-.11-6.27-2.624-12.126-7.099-16.546-4.474-4.392-10.386-6.823-16.684-6.823a23.716 23.716 0 00-16.684 6.823c-4.475 4.392-6.988 10.276-7.099 16.546v.027h3.508z" fill="#E6E7E8"/><path d="M111.561 78.708h-.856v-.028c-.11-6.27-2.624-12.126-7.099-16.546-4.475-4.392-10.386-6.823-16.684-6.823a23.716 23.716 0 00-16.684 6.823c-4.475 4.392-6.988 10.276-7.099 16.546v.028h-.856c.22-13.425 11.16-24.253 24.64-24.253 13.479 0 24.418 10.828 24.638 24.253z" fill="#D1D3D4"/><path d="M108.081 49.98a1.043 1.043 0 00-1.436.221l-19.28 25.164a3.76 3.76 0 00-3.453 1.52 3.804 3.804 0 00-.36 3.811l-3.038 2.873a.761.761 0 00.083 1.16l1.464 1.05 1.464 1.05a.771.771 0 001.132-.277l1.796-3.784c1.326.166 2.68-.36 3.508-1.52.829-1.132.911-2.568.386-3.756l17.983-26.13c.304-.415.221-1.05-.249-1.382z" fill="#53555E"/><path d="M86.425 82.796L84.63 86.58c-.194.414-.746.552-1.133.276l-1.464-1.05 26.048-35.826c.47.332.553.995.221 1.437L90.32 77.547a3.704 3.704 0 01-.387 3.757 3.688 3.688 0 01-3.508 1.492z" fill="#fff" fill-opacity=".1"/></svg>
